X: 2607
T: Baltighoran, The
R: slip jig
M: 9/8
K: Dmixolydian
|:A/G/|FAd FAd AFD|FAd FAd c2 E|FAd FAd AFD|BGG AGF c2:|
|:E|FGA AFd AFD|FGA AFd c2 E|FGA AFd AFD|BGG AGF c2:|
|:E|ded dcB AFD|ded def g2 e|ded fdB AFD|GFG EcB c2:|
|:E|FFF GGG AFD|FFF GGG c2 E|FFF GGG AFD|BGG AGF c2:|

